X: 27018
T: Miss Gordon Of Fochabers
R: strathspey
M: 4/4
K: Dmajor
A3/2G/||"D"F<A A>B A>F D>B|A>G F<A f2d/e/f|"Em"g>e f<d "A"e>dc>A|"G"B<GA<F"A"E2EF/G/|
"D"F<A A>B A>F D>B|A>G F<Af2f/g/a|"Em"g>ef>d "A"e>dc>A|"G"B<dA<F"A"E2Eg||
"D"f<dd>f "G"g<fe<g|"D"f<dd<f "Em"{f}g3{fg}e|"D"f<aa>f a>ba>f|"Em"e>de>f "G"g2 ga/b/|
"G/D"a>f "G/#C"g>e "G/B"f>d "G/A"e>c|"G"d/c/B/A/ d>A "D"[A2F2] E>D|"Em"G>BG<E "D"F>AF>D|"Em"E>FG>A "G"B>AB>d||

